!!!!SEGMENT: pl-sa--481-a-viii-121--039_anonim--marsz.krn
!!!cenid: 18xx:410
!!!COM: Anonim
!!!COM-rismID: pe30004985
!!!CDT:
!!!CNT:
!!!OTL: Marsz
!!!PDT:
!!!AGN: Secular; March
!!!SMS-siglum: PL-SA
!!!SMS-shelfmark: 481/A VIII 121
!!!SMS-shelfwork: 039 W
!!!SMS-variant:
!!!SMS-altvar:
!!!NIFC-rismSourceID: 1001070714
!!!NIFC-rismChildID: 1001070714
!!!NIFC-islandoraID:
!!!URL-pdf-islandora:
!!!URL-scan: https://bc.bdsandomierz.pl/dlibra/publication/1212/edition/1171/content @EN{Scan in the Sandomierz Diocese Digital Library} @PL{Skany w portalu Cyfrowa Biblioteka Diecezjalna w Sandomierzu}
!!!ONB-nifc: Str. 26, s. 1-4
!!!AIN: 1 piano
!!!key:
**kern	**kern
*part1	*part1
*staff2	*staff1
*Ipiano	*Iempty
*I"Piano	*
*I'P-no	*
*clefF4	*clefG2
*k[b-]	*k[b-]
*F:	*F:
*M2/2	*M2/2
*met(c|)	*met(c|)
*>[A,A,B,B]	*>[A,A,B,B]
=1	=1
*>A	*>A
!	!LO:TX:a:i:t=Marz
8F\L	4ff\
8f\	.
8c\	8ff\L
8A\J	8ff\J
4F\	8ff\L
.	8gg\
4r	8aa\
.	8ff\J
=2	=2
!LO:TX:a:t=P:problem=mixed beam	!
8C/L	(8ff\L
8c\	8ee\)
8G\	8ee\
8E\J	8ee\J
4C/	8ee\L
.	8ff\
4r	8gg 8ee\
.	8aaJ 8ff\
=3	=3
4B-\	4bb- 4gg\
4G\	8bb-L 8gg\
.	8bb-J 8gg\
4E\	8bb-L 8gg\
.	8ggJ 8ee\
4C/	8cccL 8aa\
.	8bb-J 8gg\
=4	=4
4F\	8bb-L 8gg\
.	8aa 8ff\
!	!
4C/	8gg 8ee\
.	8aaJ 8ff\
!	!
4FF/	4aa 4ff\
4r	4r
=5	=5
!LO:TX:a:t=P:problem=mixed beam	!
8BB-/L	4.dd 4.b-\
8B-\	.
8BB-/	.
8B-\J	8ee-X 8cc\
!LO:TX:a:t=P:problem=mixed beam	!
8BB-/L	8ffL 8dd\
8B-\	8ee-X 8cc\
8BB-/	8ff 8dd\
8B-\J	8ddJ 8b-\
=6	=6
!LO:TX:a:t=P:problem=mixed beam	!
8FF/L	4.cc 4.a\
8F\	.
8FF/	.
8F\J	8ee 8cc\
!LO:TX:a:t=P:problem=mixed beam	!
8FF/L	8ffL 8dd\
8F\	8ee 8cc\
8FF/	8ff 8dd\
8F\J	8ddJ 8b-\
!LO:LB:g=original	!LO:LB:g=original
=7	=7
4F\	8ccL 8a\
.	8bb- 8gg\
!	!
4B-\	8aa 8ff\
.	8ggJ 8cc\
!	!
!	!
4c\	4ff 4a\
!	!
4C/	4ee 4g\
=8	=8
8F\L	4ff 4a\
8C\	.
8AA\	8.ffL 8.a\
8C\J	.
.	16ffJk 16a\
4FF/	4ff 4a\
4r	4r
=9:|!|:	=9:|!|:
*>B	*>B
!LO:TX:a:t=P:problem=mixed beam	!
8FF/L	4.ccc 4.aa\
8F\	.
8FF/	.
8F\J	8aa 8ff\
!LO:TX:a:t=P:problem=mixed beam	!
8FF/L	8cccL 8aa\
8F\	8aa 8ff\
8FF/	8ccc 8aa\
8F\J	8aaJ 8ff\
=10	=10
!LO:TX:a:t=P:problem=mixed beam	!
8C/L	4.bb- 4.gg\
8c\	.
8C/	.
8c\J	8gg 8ee\
!LO:TX:a:t=P:problem=mixed beam	!
8C/L	8bb-L 8gg\
8c\	8gg 8ee\
8C/	8bb- 8gg\
8c\J	8ggJ 8ee\
=11	=11
4F\	4.aa 4.ff\
4A\	.
.	8ccc 8aa\
4B-\	8dddL 8bb-\
.	8ccc 8aa\
4Bn\	8bb- 8gg\
.	8aaJ 8ff\
=12	=12
4c\	8aaL 8ff\
.	8gg 8ee\
!	!
4F\	8gg 8ee\
.	8ggJ 8ee\
!	!LO:N:vis=4
4C/	8gg 8ee\
.	(8cc\L
4r	8dd\)
.	8ee\J
=13	=13
!	!
8F\L	4ff\
8f\	.
8c\	8ff\L
8A\J	8ff\J
!	!
4F\	8ff\L
.	8gg\
4r	8aa\
.	8ff\J
!LO:LB:g=original	!LO:LB:g=original
=14	=14
!LO:TX:a:t=P:problem=mixed beam	!
8C/L	(8ff\L
8c\	8ee\)
8G\	8ee\
8E\J	8ee\J
4C/	8ee\L
.	8ff\
4r	8gg 8ee\
.	8aaJ 8ff\
=15	=15
!	!
4B-\	4bb- 4gg\
!	!
4G\	8bb-L 8gg\
.	8bb- 8gg\
4E\	8bb- 8gg\
.	8ggJ 8ee\
4C/	8cccL 8aa\
.	8bb-J 8gg\
=16	=16
4F\	8bb-L 8gg\
.	8aaJ 8ff\
4C/	8ggL 8ee\
.	8aaJ 8ff\
4FF/	4aa 4ff\
4r	4r
=17	=17
!LO:TX:a:t=P:problem=przed tym taktem skreślony takt	!LO:TX:a:t=P:problem=przed tym taktem skreślony takt
!LO:TX:a:t=P:problem=mixed beam	!
8BB-/L	4.dd 4.b-\
8B-\	.
8BB-/	.
8B-\J	8ee 8cc\
!LO:TX:a:t=P:problem=mixed beam	!
8BB-/L	8ffL 8dd\
8B-\	8ee 8cc\
8BB-/	8ff 8dd\
8B-\J	8ddJ 8b-\
=18	=18
!LO:TX:a:t=P:problem=przed tym taktem skreślony takt	!LO:TX:a:t=P:problem=przed tym taktem pusty takt z jedną kreską
*	*
!LO:TX:a:t=P:problem=mixed beam	!
8FF/L	4.cc 4.a\
8F\	.
8FF/	.
8F\J	8ee 8cc\
!LO:TX:a:t=P:problem=mixed beam	!
8FF/L	8ffL 8dd\
8F\	8dd 8b-\
8FF/	8ff 8dd\
8F\J	8ddJ 8b-\
*	*
=19	=19
!	!
4F\	8ccL 8a\
.	8bb- 8gg\
!	!
4B-\	8aa 8ff\
.	8ggJ 8cc\
!	!
4c\	4ff 4a\
4BB-/	4dd 4g\
!LO:LB:g=original	!LO:LB:g=original
=20	=20
!	!
8F\L	4ff 4a\
8C\	.
8AA\	8.ffL 8.a\
8C\J	.
.	16ffJk 16a\
!	!
4FF/	4ff 4a\
!	!
!	!
4r	4r
=:|!;;	=:|!;;
*-	*-
!!!system-decoration: {s1,s2}
!!!ENC: Marta Lawrence
!!!END: 2020-11-22
!!!ENC: Anastazja Marusiak
!!!END: 2020-06-15
!!!YEC: Copyright 2022 Narodowy Instytut Fryderyka Chopina (https://polishscores.org)
!!!YEM: License CC-BY-4.0 (https://creativecommons.org/licenses/by/4.0)
